src/assets/svg/zemljevid.svg

<svg viewBox="0 0 24 24" xmlns="http://www.w3.org/2000/svg"><path d="m12 3a9 9 0 1 0 9 9 9 9 0 0 0 -9-9zm6.92 8h-2.92a15.42 15.42 0 0 0 -1.28-5.47 7 7 0 0 1 4.2 5.47zm-6.92 8h-.09a12.2 12.2 0 0 1 -1.91-6h4a12.2 12.2 0 0 1 -1.88 6zm-2-8a12.2 12.2 0 0 1 1.88-6h.18a12.2 12.2 0 0 1 1.94 6zm-.68-5.47a15.64 15.64 0 0 0 -1.32 5.47h-2.92a7 7 0 0 1 4.24-5.47zm-4.24 7.47h2.92a15.64 15.64 0 0 0 1.29 5.47 7 7 0 0 1 -4.21-5.47zm9.6 5.47a15.42 15.42 0 0 0 1.32-5.47h3a7 7 0 0 1 -4.32 5.47z"/></svg>

<svg id="Layer_1" data-name="Layer 1" xmlns="http://www.w3.org/2000/svg" viewBox="0 0 24 24"><path d="M12,3a9,9,0,1,0,9,9A9,9,0,0,0,12,3Zm6.92,8H16a15.42,15.42,0,0,0-1.28-5.47A7,7,0,0,1,18.92,11ZM12,19h-.09A12.2,12.2,0,0,1,10,13H14a12.2,12.2,0,0,1-1.88,6Zm-2-8a12.2,12.2,0,0,1,1.88-6h.18A12.2,12.2,0,0,1,14,11ZM9.32,5.53A15.64,15.64,0,0,0,8,11H5.08A7,7,0,0,1,9.32,5.53ZM5.08,13H8a15.64,15.64,0,0,0,1.29,5.47A7,7,0,0,1,5.08,13Zm9.6,5.47A15.42,15.42,0,0,0,16,13h3A7,7,0,0,1,14.68,18.47Z"/></svg>
